X: 63
M:2/4
L:1/16
K:Bb
u((3FGA)|\
|:d2|\
cBAG FAce | dBfd bfed | cBAG FAce | decA B2:|
|:ff|\
=egBg egBg | fcaf bagf | =egBg egBg | fag=e f2:|
|:f2|\
fecA FECE | DFBd fdbf | fecA FECE | DBAc B2 H:|


